X: 1
T: DENIS O'BRIEN'S
M: 4/4
L: 1/8
R: reel
K: Gmaj
~G3B ~d2Bd|1edgd edge|~d3e ~d2BG|~A2BA G~E2D:|2edge dega|bgaf gede|gedB ~A2GA||
BFAF ~E3D|BDGF EGFE|F~B2A BG~E2|FAdB AFDF:|
